aro_web/media/aro_app/image/FasadeUnfolderWhite_32.svg

<svg version="1.1" xmlns="http://www.w3.org/2000/svg" xmlns:xlink="http://www.w3.org/1999/xlink" width="32" height="32" viewBox="0,0,256,256"><g fill="none" fill-rule="nonzero" stroke="none" stroke-width="none" stroke-linecap="butt" stroke-linejoin="none" stroke-miterlimit="10" stroke-dasharray="" stroke-dashoffset="0" font-family="none" font-weight="none" font-size="none" text-anchor="none" style="mix-blend-mode: normal"><g transform="translate(-4,4) scale(8,8)"><rect x="24" y="5" width="2" height="2" fill="#ffffff" stroke="none" stroke-width="1" stroke-linejoin="miter"></rect><rect x="27" y="5" width="2" height="2" fill="#ffffff" stroke="none" stroke-width="1" stroke-linejoin="miter"></rect><rect x="27" y="8" width="2" height="2" fill="#ffffff" stroke="none" stroke-width="1" stroke-linejoin="miter"></rect><rect x="27" y="11" width="2" height="2" fill="#ffffff" stroke="none" stroke-width="1" stroke-linejoin="miter"></rect><rect x="27" y="14" width="2" height="2" fill="#ffffff" stroke="none" stroke-width="1" stroke-linejoin="miter"></rect><rect x="27" y="17" width="2" height="2" fill="#ffffff" stroke="none" stroke-width="1" stroke-linejoin="miter"></rect><rect x="27" y="20" width="2" height="2" fill="#ffffff" stroke="none" stroke-width="1" stroke-linejoin="miter"></rect><rect x="27" y="23" width="2" height="2" fill="#ffffff" stroke="none" stroke-width="1" stroke-linejoin="miter"></rect><rect x="27" y="26" width="2" height="2" fill="#ffffff" stroke="none" stroke-width="1" stroke-linejoin="miter"></rect><rect x="24" y="26" width="2" height="2" fill="#ffffff" stroke="none" stroke-width="1" stroke-linejoin="miter"></rect><rect x="21" y="26" width="2" height="2" fill="#ffffff" stroke="none" stroke-width="1" stroke-linejoin="miter"></rect><rect x="18" y="26" width="2" height="2" fill="#ffffff" stroke="none" stroke-width="1" stroke-linejoin="miter"></rect><rect x="15" y="26" width="2" height="2" fill="#ffffff" stroke="none" stroke-width="1" stroke-linejoin="miter"></rect><rect x="15" y="23" width="2" height="2" fill="#ffffff" stroke="none" stroke-width="1" stroke-linejoin="miter"></rect><rect x="15" y="20" width="2" height="2" fill="#ffffff" stroke="none" stroke-width="1" stroke-linejoin="miter"></rect><rect x="15" y="8" width="2" height="2" fill="#ffffff" stroke="none" stroke-width="1" stroke-linejoin="miter"></rect><path d="M4,6h12l6,-3v21l-6,3h-12z" fill="none" stroke="#ffffff" stroke-width="2" stroke-linejoin="miter"></path><path d="M15,15h-3c-1.1046,0 -2,0.8954 -2,2v5" fill="none" stroke="#ffffff" stroke-width="2" stroke-linejoin="round"></path><path d="M16,15.5858v-1.1716l0.5858,0.5858z" fill="none" stroke="#ffffff" stroke-width="2" stroke-linejoin="miter"></path></g></g></svg>

<svg width="32" height="32" viewBox="0 0 32 32" fill="none" xmlns="http://www.w3.org/2000/svg">
<rect x="24" y="5" width="2" height="2" fill="#13100A"/>
<rect x="27" y="5" width="2" height="2" fill="#13100A"/>
<rect x="27" y="8" width="2" height="2" fill="#13100A"/>
<rect x="27" y="11" width="2" height="2" fill="#13100A"/>
<rect x="27" y="14" width="2" height="2" fill="#13100A"/>
<rect x="27" y="17" width="2" height="2" fill="#13100A"/>
<rect x="27" y="20" width="2" height="2" fill="#13100A"/>
<rect x="27" y="23" width="2" height="2" fill="#13100A"/>
<rect x="27" y="26" width="2" height="2" fill="#13100A"/>
<rect x="24" y="26" width="2" height="2" fill="#13100A"/>
<rect x="21" y="26" width="2" height="2" fill="#13100A"/>
<rect x="18" y="26" width="2" height="2" fill="#13100A"/>
<rect x="15" y="26" width="2" height="2" fill="#13100A"/>
<rect x="15" y="23" width="2" height="2" fill="#13100A"/>
<rect x="15" y="20" width="2" height="2" fill="#13100A"/>
<rect x="15" y="8" width="2" height="2" fill="#13100A"/>
<path d="M4 6H16L22 3V24L16 27H4V6Z" stroke="#13100A" stroke-width="2"/>
<path d="M15 15H12C10.8954 15 10 15.8954 10 17V22" stroke="#13100A" stroke-width="2" stroke-linejoin="round"/>
<path d="M16 15.5858V14.4142L16.5858 15L16 15.5858Z" stroke="white" stroke-width="2"/>
</svg>
